desktop/renderer-app/src/assets/image/setting-active.svg

<?xml version="1.0" encoding="UTF-8"?>
<svg width="44px" height="44px" viewBox="0 0 44 44" version="1.1" xmlns="http://www.w3.org/2000/svg" xmlns:xlink="http://www.w3.org/1999/xlink">
    <title>矩形备份 21</title>
    <g id="2.1" stroke="none" stroke-width="1" fill="none" fill-rule="evenodd">
        <g id="组件规范" transform="translate(-215.000000, -2030.000000)" fill="#FFFFFF">
            <g id="编组-22" transform="translate(32.000000, 1858.000000)">
                <g id="编组-4备份" transform="translate(164.000000, 8.000000)">
                    <g id="编组-4备份-4" transform="translate(19.000000, 164.000000)">
                        <path d="M25.1780278,10.4253445 C27.1904624,10.9766325 28.9917364,12.0387162 30.4337993,13.4635451 C29.9700641,14.5735851 30.0127075,15.8784165 30.660254,17 C31.3084858,18.1227703 32.4188429,18.8123878 33.6123514,18.9673068 C33.8656803,19.935559 34,20.9520935 34,22 C34,23.049341 33.8653123,24.0672241 33.6122817,25.0373044 C32.4188429,25.1876122 31.3084858,25.8772297 30.660254,27 C30.0129779,28.1211152 29.9700998,29.4253252 30.4305226,30.5353298 C28.9922161,31.9608098 27.1916608,33.0226608 25.1800361,33.5741052 C24.4482267,32.6164453 23.2961026,32 22,32 C20.7038974,32 19.5517733,32.6164453 18.8208242,33.5721395 C16.8083392,33.0226608 15.0077839,31.9608098 13.5662007,30.5364549 C14.0299002,29.4253252 13.9870221,28.1211152 13.339746,27 C12.6915142,25.8772297 11.5811571,25.1876122 10.3876486,25.0326932 C10.1346877,24.0672241 10,23.049341 10,22 C10,20.9520935 10.1343197,19.935559 10.3866813,18.9666743 C11.5811571,18.8123878 12.6915142,18.1227703 13.339746,17 C13.9872925,15.8784165 14.0299359,14.5735851 13.5689001,13.4632792 C15.0082636,12.0387162 16.8095376,10.9766325 18.8219722,10.4253445 C19.5517733,11.3835547 20.7038974,12 22,12 C23.2049849,12 24.2855235,11.4671819 25.0188674,10.6242938 L25.1780278,10.4253445 Z M22,18 C19.790861,18 18,19.790861 18,22 C18,24.209139 19.790861,26 22,26 C24.209139,26 26,24.209139 26,22 C26,19.790861 24.209139,18 22,18 Z" id="形状结合"></path>
                    </g>
                </g>
            </g>
        </g>
    </g>
</svg>

<svg width="44" height="44" xmlns="http://www.w3.org/2000/svg"><path d="M25.178 10.425a11.987 11.987 0 0 1 5.256 3.039A3.984 3.984 0 0 0 30.66 17a3.994 3.994 0 0 0 2.952 1.967c.254.969.388 1.985.388 3.033 0 1.05-.135 2.067-.388 3.037A3.975 3.975 0 0 0 30.66 27a3.994 3.994 0 0 0-.23 3.535 11.95 11.95 0 0 1-5.25 3.04A3.993 3.993 0 0 0 22 32a3.994 3.994 0 0 0-3.18 1.572 11.963 11.963 0 0 1-5.254-3.036A3.984 3.984 0 0 0 13.34 27a3.994 3.994 0 0 0-2.952-1.967A11.96 11.96 0 0 1 10 22c0-1.048.134-2.064.387-3.033A3.991 3.991 0 0 0 13.34 17a3.994 3.994 0 0 0 .229-3.537 11.965 11.965 0 0 1 5.253-3.038A3.985 3.985 0 0 0 22 12a3.99 3.99 0 0 0 3.019-1.376l.159-.199ZM22 18a4 4 0 1 0 0 8 4 4 0 0 0 0-8Z" fill="#FFF" fill-rule="evenodd"/></svg>
